X:218
T:Sl\"angpolska fr{\aa}n Glanshammar
R:sl\"angpolska
A:N\"arke
D:Anders Norudde: Kan sj\"alv! (spelas i A p{\aa} skivan)
Z:id:hn-sp-218
M:3/4
L:1/16
K:D
f | a2af g2ge f2fa | gfge dcdA GFED | a2af g2ge f2fa | gfge e4 d3 :|
|: z | D2D2 F2F2 A2A2 | d2df edcB AGFE | DFAF DGBG DFAF | E2EF GFEF D3 :|
<end>
<start>
